X: 224
T: Foxhunter
R: reel
M: 4/4
L: 1/8
K:Gmaj
"G" d2BG dGBG|dGBG "C" AGEG|"G"d2BG dGBG|"Am" AcBG "C" AGEG:|
"G" ~D3 B BAGE|DGBG "C" AGEG|"G" ~D3 B BABG|"Am" AcBG "C" AGEG:|
"G" gedB G2 Bd|gedB "Am" eA ~A2|"G" gedB GABG|"Am" ABcd eA ~A2:|
"G" dggf ~g3e|dg ~g2 "C" egdB|"G" dggf ~g3d|"C" (3efg dB "G" AGAB:|
"G" ~G2 BG dGBG|GB ~B2 "Am" AGAB|"G" ~G2 BG dGBG|"C" (3efg dB "G" AGAB:|


